X:1
T:Make Some Music
M:4/4
K:A
L:1/8
C:trad
E2 |ECA,C E2EE |DDDF A3F [1EEEE FEEC |B,6 :[2EEAF EDCB, |A,6 A |
A<FDF A<AA2 |FEE>C E3E |EEE>E FEEE |FEDC B,EE |
ECA,>C EEE>E |DDD>F Az2F |E<EAF EDCB, | A,A,A,B, A,2 |
